X: 1
T: Drink The Rest And Hide The Bottle
M: 9/8
L: 1/8
R: slip jig
K: Dmaj
dcA GEA GED|dcA AGE ~F3|dcA GEA GED|EG=c ed^c d3:|
fdB BAB ~g3|fdB cdf ecA|fdB BAB ~g3|fdf gec dBA|
fdB BAB ~g3|fdB cdf ecA|BdB =cec d3|faf gec d3||
